X: 0037
T: \"Alvdalens Brudmarsch efter S.J.Larsson
C: C.G.
%R: march
B: Paul B\"ackstr\"om's "L\aatar fr\aan Dalarna" collection" 1974
Z: 2022 John Chambers <jc:trillian.mit.edu>
M: 2/4
L: 1/16
P: E.F.32.
K: G
% - - - - - - - - - -
D2 |:\
"^>"G3G (A2B2) | c2(3(BcB) A2G2 | (B2d2) (e2ce) |"^>"d4 "_>"A4 | d4 (e2f2) | g2(3(fgf) (e2d2) | (AB^cd) (e2ce) |
|[1 d4 z2(3(B=cB) :|[2 d6 d2 |] d6 f2 | (a2fa) g4 | ({d}cBcd) (e2ce) | (d3B) A2B2 | "^>"c4 (cedc) |
"^>"B4 (BdcB) | A3c (TB2AF) | G6 B2 | "^>"c4 (cedc) | "^>"B4 (BdcB) | A3c (TB2AF) | HG8 |]
% - - - - - - - - - -
%%text Jmf. S.L. nr 144,417    Jmf 429-499

%%sep 2 1 500
%%sep 1 1 500

